X: 84
T: WALTZES: Trip to Skye Set
T: Trip to Skye
C: C: John Whelan / Pete Jung; S: Various
C: Set Leaders: Olya, Tania, Oliushka, André, Vova
Z: Oleg Naumov arr.; shanachie / Thistledowne at The Session
N: https://thesession.org/members/26966/sets/92071
R: Waltz
M: 3/4
L: 1/8
Q: 1/4=144
K: Bmin
|:"Bm"f2 ed cB|"A"ce AB ce|"G"d2 ce dc|"A"d2 B2 B2|
"Bm"f2 ed cB|"A"ce AB ce|"G"d2 ce dc|1"A"dc BA FA:|2"A"dc B A FE||
|:"Bm"F2 Bc d2|"Bm"F2 Bc dB|"A"ce AB ce|"A"dc BA FE|
"G"F2 Bc d2|"G"F2 Bc dB|"A"ce AB ce|1 "A"d2 c/d/c B/c/B:|2 "A"d2 B2 B2||
T: Far Away
K: Bmin
|:FA|"Bm"B3 F Bd|"F#m"cA F2 FA|"Bm"B3 F Be|"A"c4 dc|
"G (Em)"B3 G Bd|"A"cA F2 de|"G"fe d"A"c BA|1 "Bm"B4:|2 "Bm"B3||
|:c de|"D"f3 d fa|"A"ec A2 de|"D"f3 d fa|"Em"e4 de|
"Bm"fd B"A"e cA|"G"dB G"F#m"c AE|"Bm"F2 B2 "F#m"A2|1 "G"B3:|2 "Bm"B6||